X:32
%%scale .7
T: Musical Priest/ Red Haired Lass
T:Musical Priest
R: reel
M: 4/4
L: 1/8
K: Bmin
|:BA|FBBA B2Bd|cBAf ecBA|FBBA B2Bd|cBAc B2:|
|:Bc|d2dc dfed|(3cBA eA fAeA|dcBc defb|afec B2:|
|Bc|dBB2 bafb|afec ABce|dB B2 bafb|afec B2Bc|
dB B2 bafb|afec ABce|dcBc defb|afec B2|
T: Red-haired Lass, The
R: reel
M: 4/4
L: 1/8
K: Gmaj
DG{A}GF ~G2 E|DGBG AGEG|DG{A}GF GABd|egdB cBAG|
DG{A}GF GABG|DGBG AGEG|DG{A}GF GABd|gedB ~c2 Bc||
d2 gd edgd|(3ddd gd BABc|d2 gd edef|gedB ~c2 Bc|
d2 gd edgd|(3ddd gd BABd|~c3 A BcBA|GABd edBA||
T:Alternatives
DG{A}GF ~G2{A}BG|G2{A}BG AGEG|DG{A}GF GABd|e/f/g dB cBAG|
DG{A}GF G2 {A}BG|G2 {A}BG AGEG|DG{A}GF GABd|e/f/g  dB ~c2 Bc||
d2 gd edgd|(3ddd gd BABc|d2 gd edef|gedB ~c2 Bc|
d2 gd edgd|(3ddd gd BABd|~c3 A B2BA|GABd e/f/g BA||

